icons/outline/recharging.svg

<!--
tags: [battery, power, charge, socket, electricity, device, phone, laptop, low]
version: "1.39"
unicode: "eeca"
-->
<svg
  xmlns="http://www.w3.org/2000/svg"
  width="24"
  height="24"
  viewBox="0 0 24 24"
  fill="none"
  stroke="currentColor"
  stroke-width="2"
  stroke-linecap="round"
  stroke-linejoin="round"
>
  <path d="M7.038 4.5a9 9 0 0 0 -2.495 2.47m-1.357 3.239a9 9 0 0 0 0 3.508m1.314 3.245a9 9 0 0 0 2.47 2.495m3.239 1.357a9 9 0 0 0 3.5 0m3.253 -1.314a9 9 0 0 0 2.495 -2.47m1.357 -3.239a9 9 0 0 0 0 -3.508m-1.314 -3.245a9 9 0 0 0 -2.47 -2.495m-3.239 -1.357a9 9 0 0 0 -3.508 -.02m1.717 4.834l-2 4h4l-2 4m0 5a9 9 0 0 0 0 -18" />
</svg>

<!--
tags: [battery, power, charge, socket, electricity, device, phone, laptop, low]
version: "1.39"
unicode: "eeca"
-->
<svg
  xmlns="http://www.w3.org/2000/svg"
  width="24"
  height="24"
  viewBox="0 0 24 24"
  fill="none"
  stroke="currentColor"
  stroke-width="2"
  stroke-linecap="round"
  stroke-linejoin="round"
>
    <path d="M7.038 4.5a9 9 0 0 0 -2.495 2.47M3.186 10.209a9 9 0 0 0 0 3.508M4.5 16.962a9 9 0 0 0 2.47 2.495M10.209 20.814a9 9 0 0 0 3.5 0M16.962 19.5a9 9 0 0 0 2.495 -2.47M20.814 13.791a9 9 0 0 0 0 -3.508M19.5 7.038a9 9 0 0 0 -2.47 -2.495M13.791 3.186a9 9 0 0 0 -3.508 -.02M12 8l-2 4h4l-2 4M12 21a9 9 0 0 0 0 -18" />
</svg>
